src/main/resources/icons/KubernetesIcons/icons/helmUndeployable.svg

<svg xmlns="http://www.w3.org/2000/svg" width="16" height="16" viewBox="0 0 16 16"><rect id="frame" width="16" height="16" fill="none"/><path fill="#9AA7B0" fill-rule="evenodd" d="M8.045 11.514c-.013-.001-.021-.012-.035-.012h-.02c-.013 0-.022.011-.035.012A3.515 3.515 0 0 1 4.482 8a3.518 3.518 0 1 1 7.037 0 3.516 3.516 0 0 1-3.474 3.514m6.102-4.164l-1.207.053a4.947 4.947 0 0 0-1.022-2.475l.887-.814c.25-.248.4-.807.152-1.057l-.014-.014c-.25-.248-.808-.097-1.056.152l-.815.887a4.946 4.946 0 0 0-2.474-1.021l.052-1.207c0-.352-.289-.854-.64-.854h-.02c-.351 0-.64.502-.64.854l.052 1.207a4.946 4.946 0 0 0-2.474 1.021l-.815-.887c-.248-.249-.806-.4-1.056-.152l-.014.014c-.248.25-.098.809.152 1.057l.887.814a4.937 4.937 0 0 0-1.021 2.475L1.854 7.35c-.352 0-.854.289-.854.641v.019c0 .352.502.641.854.641l1.207-.053a4.94 4.94 0 0 0 1.021 2.475l-.887.814c-.25.248-.4.807-.152 1.057l.014.013c.25.248.808.098 1.056-.152l.815-.887c.701.55 1.545.91 2.474 1.022l-.052 1.207c0 .351.289.853.64.853h.02c.351 0 .64-.502.64-.853l-.052-1.207a4.947 4.947 0 0 0 2.474-1.022l.815.887c.248.25.806.4 1.056.152l.014-.013c.248-.25.098-.809-.152-1.057l-.887-.814a4.95 4.95 0 0 0 1.022-2.475l1.207.053c.351 0 .853-.289.853-.641v-.019c0-.352-.502-.641-.853-.641"/></svg>

<svg xmlns="http://www.w3.org/2000/svg" width="16" height="16" viewBox="0 0 16 16">
  <path fill="#9AA7B0" fill-rule="evenodd" d="M8.045,11.514 C8.032,11.513 8.024,11.502 8.01,11.502 L7.99,11.502 C7.977,11.502 7.968,11.513 7.955,11.514 C6.033,11.49 4.482,9.928 4.482,8 C4.482,6.057 6.057,4.482 8,4.482 C9.943,4.482 11.519,6.057 11.519,8 C11.519,9.928 9.967,11.49 8.045,11.514 M14.147,7.35 L12.94,7.403 C12.828,6.473 12.468,5.629 11.918,4.928 L12.805,4.114 C13.055,3.866 13.205,3.307 12.957,3.057 L12.943,3.043 C12.693,2.795 12.135,2.946 11.887,3.195 L11.072,4.082 C10.371,3.533 9.527,3.172 8.598,3.061 L8.65,1.854 C8.65,1.502 8.361,1 8.01,1 L7.99,1 C7.639,1 7.35,1.502 7.35,1.854 L7.402,3.061 C6.473,3.172 5.629,3.533 4.928,4.082 L4.113,3.195 C3.865,2.946 3.307,2.795 3.057,3.043 L3.043,3.057 C2.795,3.307 2.945,3.866 3.195,4.114 L4.082,4.928 C3.532,5.629 3.172,6.473 3.061,7.403 L1.854,7.35 C1.502,7.35 1,7.639 1,7.991 L1,8.01 C1,8.362 1.502,8.651 1.854,8.651 L3.061,8.598 C3.172,9.528 3.532,10.371 4.082,11.073 L3.195,11.887 C2.945,12.135 2.795,12.694 3.043,12.944 L3.057,12.957 C3.307,13.205 3.865,13.055 4.113,12.805 L4.928,11.918 C5.629,12.468 6.473,12.828 7.402,12.94 L7.35,14.147 C7.35,14.498 7.639,15 7.99,15 L8.01,15 C8.361,15 8.65,14.498 8.65,14.147 L8.598,12.94 C9.527,12.828 10.371,12.468 11.072,11.918 L11.887,12.805 C12.135,13.055 12.693,13.205 12.943,12.957 L12.957,12.944 C13.205,12.694 13.055,12.135 12.805,11.887 L11.918,11.073 C12.468,10.371 12.828,9.528 12.94,8.598 L14.147,8.651 C14.498,8.651 15,8.362 15,8.01 L15,7.991 C15,7.639 14.498,7.35 14.147,7.35"/>
</svg>
